src/assets/Devices/PS5 Front-dpad.svg

<svg width="952" height="638" fill="none" xmlns="http://www.w3.org/2000/svg"><path opacity=".2" d="M472.244 11.528c-65.328.13-221.554 2.544-361.13 40.61-26.212 47.469-83.545 179.713-103.18 328.94C-14.3 550.063 42.997 639.546 92.082 633.802c38.567-4.513 63.611-21.06 91.159-95.774 4.987-13.524 9.103-25.898 12.829-37.095 16.854-50.662 25.694-77.232 70.817-77.232h418.228c45.123 0 53.963 26.57 70.818 77.232 3.725 11.197 7.841 23.571 12.828 37.095 27.548 74.714 52.592 91.261 91.159 95.774 49.085 5.744 106.381-83.739 84.146-252.723-19.634-149.227-76.967-281.472-103.179-328.942C701.31 14.072 545.084 11.66 479.756 11.528v-.007c-1.21 0-2.463 0-3.756.002a4036.62 4036.62 0 0 0-3.756-.002v.007Z" stroke="#fff" stroke-width="6"/><path opacity=".2" d="M211.043 30.494c34.617-4.525 63.714-7.541 70.236 20.613 6.522 28.154 16.054 72.899 22.074 102.059 6.02 29.16-.502 56.812-19.064 78.934-18.562 22.121-60.202 68.877-116.39 184.009m0 0c-56.189 115.132-65.721 194.568-68.731 217.192m68.731-217.192 27.09 39.824m-81.272 173.346c3.512-18.602 14.448-64.052 30.101-97.033 11.481-24.19 29.18-54.267 51.171-76.313m52.176-29.769c-19.073 2.701-36.688 14.244-52.176 29.769M739.602 30.489c-34.616-4.517-63.714-7.529-70.236 20.579-6.521 28.108-16.053 72.779-22.074 101.89-6.02 29.112.502 56.718 19.064 78.803 18.563 22.085 60.202 68.764 116.391 183.705m0 0c56.188 114.941 65.72 194.245 68.731 216.832m-68.731-216.832-27.091 39.758m81.273 173.059c-3.512-18.572-14.449-63.946-30.101-96.872-11.481-24.151-29.18-54.177-51.172-76.187m-52.175-29.72c19.072 2.697 36.688 14.221 52.175 29.72" stroke="#fff"/><path opacity=".2" d="M123.71 31.078v17.55c34.059-9.528 98.171-20.058 127.722-24.07l-3.506-15.544c-9.015-4.011-34.66-10.53-65.113-4.512-30.453 6.017-52.091 20.224-59.103 26.576Zm703.225 0v17.55c-34.06-9.528-98.171-20.058-127.723-24.07l3.506-15.544c9.016-4.011 34.661-10.53 65.114-4.512 30.453 6.017 52.09 20.224 59.103 26.576Z" stroke="#fff" stroke-width="3"/><path opacity=".2" d="M123.71 33.083v15.544c31.254-10.83 98.171-20.055 127.722-24.067l-3.506-15.544c-14.024 3.007-34.66 5.513-65.113 11.53-30.453 6.018-51.089 11.033-59.103 12.537Zm703.225 0v15.544c-31.255-10.83-98.171-20.055-127.723-24.067l3.506-15.544c14.025 3.007 34.661 5.513 65.114 11.53 30.453 6.018 51.089 11.033 59.103 12.537Z" stroke="#fff"/><g opacity=".2" stroke="#fff"><circle cx="328.5" cy="309.994" r="36"/><circle cx="328.5" cy="310.994" r="53" stroke-width="3"/><circle cx="328.5" cy="310.994" r="71"/></g><g opacity=".2" stroke="#fff"><circle cx="621.5" cy="309.994" r="36"/><circle cx="621.5" cy="310.994" r="53" stroke-width="3"/><circle cx="621.5" cy="310.994" r="71"/></g><path d="m189.595 174.008-.469-2.963a3.983 3.983 0 0 1-1.252 0l-.469 2.963.469-2.963c-.395-.062-.937-.266-1.946-1.077-1.053-.847-2.313-2.101-4.216-4.005l-12.319-12.318c-2.445-2.445-3.177-3.226-3.63-4.115a6.909 6.909 0 0 1-.42-1.015c-.309-.949-.343-2.019-.343-5.477v-11.344c0-5.316.004-9.063.317-11.948.306-2.83.88-4.474 1.784-5.717.678-.934 1.5-1.756 2.433-2.434 1.244-.903 2.888-1.478 5.717-1.784 2.886-.313 6.633-.317 11.949-.317h2.6c5.316 0 9.063.004 11.949.317 2.829.306 4.473.881 5.717 1.784.933.678 1.755 1.5 2.433 2.434.904 1.243 1.478 2.887 1.784 5.717.313 2.885.317 6.632.317 11.948v11.344c0 3.458-.034 4.528-.343 5.477a6.909 6.909 0 0 1-.42 1.015c-.453.889-1.185 1.67-3.63 4.115l-12.319 12.318c-1.903 1.904-3.163 3.158-4.216 4.005-1.009.811-1.551 1.015-1.946 1.077l.469 2.963Zm-1.721 23.435-.469-2.963.469 2.963a3.983 3.983 0 0 1 1.252 0l.469-2.963-.469 2.963c.395.062.937.266 1.946 1.078 1.053.847 2.313 2.101 4.216 4.004l12.319 12.318c2.445 2.445 3.177 3.226 3.63 4.115.167.327.307.666.42 1.015.309.949.343 2.019.343 5.477v11.344c0 5.317-.004 9.063-.317 11.949-.306 2.829-.88 4.473-1.784 5.717a10.99 10.99 0 0 1-2.433 2.433c-1.244.904-2.888 1.478-5.717 1.784-2.886.313-6.633.317-11.949.317h-2.6c-5.316 0-9.063-.004-11.949-.317-2.829-.306-4.473-.88-5.717-1.784l-1.763 2.427 1.763-2.427a10.99 10.99 0 0 1-2.433-2.433l-2.427 1.763 2.427-1.763c-.904-1.244-1.478-2.888-1.784-5.717-.313-2.886-.317-6.632-.317-11.949V225.45c0-3.458.034-4.528.343-5.477.113-.349.253-.688.42-1.015.453-.889 1.185-1.67 3.63-4.115l12.319-12.318c1.903-1.903 3.163-3.157 4.216-4.004 1.009-.812 1.551-1.016 1.946-1.078Zm70.842-34.598 1.763-2.427-1.763 2.427a11.01 11.01 0 0 1 2.433 2.433l2.427-1.763-2.427 1.764c.904 1.243 1.478 2.887 1.784 5.717.313 2.885.317 6.632.317 11.948v2.6c0 5.317-.004 9.063-.317 11.949-.306 2.829-.88 4.473-1.784 5.717a10.99 10.99 0 0 1-2.433 2.433c-1.244.904-2.888 1.478-5.717 1.784-2.886.313-6.633.317-11.949.317h-11.344c-3.458 0-4.528-.034-5.477-.342a7.025 7.025 0 0 1-1.015-.421c-.889-.453-1.67-1.185-4.115-3.63l-12.318-12.319c-1.903-1.903-3.158-3.163-4.005-4.216-.811-1.008-1.015-1.551-1.077-1.946a3.983 3.983 0 0 1 0-1.252c.062-.394.266-.937 1.077-1.946.847-1.053 2.102-2.313 4.005-4.216l12.318-12.318c2.445-2.445 3.226-3.178 4.115-3.631a7.02 7.02 0 0 1 1.015-.42c.949-.309 2.019-.343 5.477-.343h11.344c5.316 0 9.063.004 11.949.317 2.829.306 4.473.881 5.717 1.784Zm-83.415 20.773 2.963-.469-2.963.469c.066.415.066.837 0 1.252l2.963.469-2.963-.469c-.062.395-.266.938-1.077 1.946-.847 1.053-2.102 2.313-4.005 4.216l-12.318 12.319c-2.445 2.445-3.226 3.177-4.115 3.63a7.025 7.025 0 0 1-1.015.421c-.949.308-2.019.342-5.477.342H135.95c-5.316 0-9.063-.004-11.949-.317-2.829-.306-4.473-.88-5.717-1.784a10.99 10.99 0 0 1-2.433-2.433c-.904-1.244-1.478-2.888-1.784-5.717-.313-2.886-.317-6.632-.317-11.949v-2.6c0-5.316.004-9.063.317-11.948.306-2.83.88-4.474 1.784-5.717.678-.934 1.5-1.756 2.433-2.434 1.244-.903 2.888-1.478 5.717-1.784 2.886-.313 6.633-.317 11.949-.317h11.344c3.458 0 4.528.034 5.477.343a7.02 7.02 0 0 1 1.015.42c.889.453 1.67 1.185 4.115 3.63l12.318 12.319c1.903 1.903 3.158 3.163 4.004 4.216.812 1.009 1.016 1.552 1.078 1.946Z" stroke="#fff" stroke-width="6"/><path d="m189.5 122.494 6.495 8.25h-12.99l6.495-8.25Zm0 126 6.495-8.25h-12.99l6.495 8.25Zm63-64-8.25 6.495v-12.99l8.25 6.495Zm-126 0 8.25 6.495v-12.99l-8.25 6.495Z" fill="#fff"/><circle cx="188" cy="185.494" r="91.5" stroke="#fff"/><path opacity=".2" d="M289.085 43.005c-1.803-8.8 4.517-17.208 13.471-17.924 130.253-10.421 211.538-10.346 345.48.044 8.973.696 15.32 9.114 13.514 17.93L633.458 180.16c-4.767 23.262-25.237 39.964-48.983 39.964H366.17c-23.746 0-44.216-16.702-48.983-39.964L289.085 43.005Z" stroke="#fff" stroke-width="2"/><path opacity=".2" d="M288.342 42.108c-.662-3.222 1.686-6.313 4.974-6.585 140.456-11.637 218.523-11.559 363.025.02 3.284.263 5.642 3.339 4.999 6.56l-27.552 137.913c-4.717 23.61-25.445 40.606-49.522 40.606H366.159c-23.978 0-44.65-16.861-49.47-40.35L288.342 42.108Zm-41.62 32.058c-1.256-6.02 2.606-11.922 8.627-13.18 6.02-1.26 11.918 2.601 13.174 8.622l3.972 19.04c1.256 6.021-2.606 11.922-8.626 13.181-6.021 1.259-11.919-2.602-13.175-8.622l-3.972-19.041Zm458.089 0c1.256-6.02-2.606-11.922-8.626-13.18-6.021-1.26-11.919 2.601-13.175 8.622l-3.972 19.04c-1.256 6.021 2.606 11.922 8.627 13.181 6.02 1.259 11.918-2.602 13.174-8.622l3.972-19.041Zm-252.53 287.357a4.514 4.514 0 0 1 4.515-4.514h38.055a4.514 4.514 0 0 1 0 9.028h-38.055a4.514 4.514 0 0 1-4.515-4.514Z" stroke="#fff"/><path opacity=".2" d="M452.281 361.523a4.514 4.514 0 0 1 4.515-4.514h38.055a4.514 4.514 0 0 1 0 9.028h-38.055a4.514 4.514 0 0 1-4.515-4.514Zm7.013 46.633a7.022 7.022 0 0 1 7.021-7.021h20.018a7.022 7.022 0 1 1 0 14.043h-20.018a7.022 7.022 0 0 1-7.021-7.022Z" stroke="#fff"/><g opacity=".2" stroke="#fff"><circle cx="767" cy="115.494" r="31.5" stroke-width="3"/><circle cx="767" cy="251.494" r="31.5" stroke-width="3"/><circle cx="835" cy="184.494" r="31.5" transform="rotate(90 835 184.494)" stroke-width="3"/><circle cx="699" cy="184.494" r="31.5" transform="rotate(90 699 184.494)" stroke-width="3"/><circle cx="767" cy="183.494" r="108.5"/><path d="m751.412 124.494 15.588-27 15.588 27h-31.176Zm-66.412 46h27v28h-27z" stroke-width="4"/><circle cx="835" cy="184.494" r="18" stroke-width="4"/><path stroke-width="4" d="m753.414 237.08 29 29m-29.828 0 29-29"/></g><path opacity=".2" d="M513.567 239.556v.001a4.504 4.504 0 0 1 1.826 3.627 4.512 4.512 0 0 1-4.509 4.515 4.512 4.512 0 0 1-4.509-4.515 4.511 4.511 0 0 1 7.192-3.628Zm-66.293 3.628a4.512 4.512 0 0 1-4.508 4.515 4.512 4.512 0 0 1-4.509-4.515 4.511 4.511 0 0 1 4.509-4.514 4.51 4.51 0 0 1 4.508 4.514Zm8.014 15.043a4.512 4.512 0 0 1-4.508 4.515 4.512 4.512 0 0 1-4.509-4.515 4.511 4.511 0 0 1 4.509-4.514 4.51 4.51 0 0 1 4.508 4.514Zm9.016-15.043a4.512 4.512 0 0 1-4.509 4.515 4.512 4.512 0 0 1-4.509-4.515 4.511 4.511 0 0 1 4.509-4.514c2.49 0 4.509 2.02 4.509 4.514Zm8.014 15.043a4.512 4.512 0 0 1-4.509 4.515 4.512 4.512 0 0 1-4.509-4.515 4.511 4.511 0 0 1 4.509-4.514c2.49 0 4.509 2.02 4.509 4.514Zm9.016-15.043a4.512 4.512 0 0 1-4.509 4.515 4.512 4.512 0 0 1-4.509-4.515 4.511 4.511 0 0 1 4.509-4.514c2.49 0 4.509 2.02 4.509 4.514Zm8.014 15.043a4.512 4.512 0 0 1-4.509 4.515 4.512 4.512 0 0 1-4.509-4.515 4.511 4.511 0 0 1 4.509-4.514c2.49 0 4.509 2.02 4.509 4.514Zm9.015-15.043a4.512 4.512 0 0 1-4.508 4.515 4.512 4.512 0 0 1-4.509-4.515 4.511 4.511 0 0 1 4.509-4.514 4.51 4.51 0 0 1 4.508 4.514Zm8.014 15.043a4.512 4.512 0 0 1-4.509 4.515 4.512 4.512 0 0 1-4.508-4.515 4.51 4.51 0 0 1 4.508-4.514c2.49 0 4.509 2.02 4.509 4.514Z" stroke="#fff"/><path opacity=".2" stroke="#fff" stroke-width="2" d="M469.812 406.655h13.023"/><path d="M504.097 324.78c-1.149 1.453-3.959 2.488-3.959 2.488l-20.924 7.533v-5.557l15.397-5.501c1.75-.626 2.017-1.514.596-1.979-1.416-.468-3.983-.334-5.733.297l-10.258 3.621v-5.763l.588-.201s2.965-1.054 7.135-1.516c4.167-.46 9.275.064 13.282 1.585 4.514 1.431 5.022 3.539 3.876 4.991v.002Zm-22.893-9.459v-14.206c0-1.668-.305-3.203-1.867-3.637-1.194-.385-1.937.728-1.937 2.394v35.576l-9.574-3.046v-42.417c4.071.757 10.001 2.548 13.188 3.624 8.108 2.789 10.856 6.263 10.856 14.085 0 7.625-4.696 10.516-10.663 7.627h-.003Zm-30.942 13.345c-4.635-1.31-5.407-4.038-3.294-5.608 1.953-1.449 5.273-2.54 5.273-2.54l13.726-4.894v5.578l-9.876 3.544c-1.745.625-2.014 1.513-.596 1.979 1.419.468 3.988.334 5.735-.294l4.737-1.723v4.988l-.943.16c-4.739.776-9.788.452-14.762-1.19Z" fill="#fff" opacity=".2"/></svg>

<svg width="952" height="638" viewBox="0 0 952 638" fill="none" xmlns="http://www.w3.org/2000/svg">
<path opacity="0.2" d="M472.244 11.5283C406.916 11.6589 250.69 14.0726 111.114 52.1377C84.902 99.6069 27.5694 231.852 7.93464 381.079C-14.2996 550.063 42.9964 639.546 92.0812 633.802C130.648 629.289 155.692 612.742 183.24 538.028C188.227 524.504 192.343 512.13 196.069 500.933C212.923 450.272 221.763 423.701 266.886 423.701H685.114C730.237 423.701 739.077 450.272 755.932 500.933C759.657 512.13 763.773 524.504 768.76 538.028C796.308 612.742 821.352 629.289 859.919 633.802C909.004 639.546 966.3 550.063 944.065 381.079C924.431 231.852 867.098 99.6069 840.886 52.1377C701.31 14.0726 545.084 11.6589 479.756 11.5283V11.5215C478.546 11.5215 477.293 11.5219 476 11.523C474.707 11.5219 473.454 11.5215 472.244 11.5215V11.5283Z" stroke="white" stroke-width="6"/>
<path opacity="0.2" d="M211.043 30.4941C245.66 25.9693 274.757 22.9527 281.279 51.1072C287.801 79.2617 297.333 124.007 303.353 153.167C309.373 182.327 302.851 209.978 284.289 232.1C265.727 254.221 224.087 300.978 167.899 416.109M167.899 416.109C111.71 531.241 102.178 610.677 99.168 633.301M167.899 416.109L194.989 455.934M113.717 629.279C117.229 610.677 128.165 565.228 143.818 532.247C155.299 508.056 172.998 477.98 194.989 455.934M247.165 426.165C228.092 428.865 210.477 440.408 194.989 455.934" stroke="white"/>
<path opacity="0.2" d="M739.603 30.4892C704.987 25.9719 675.889 22.9604 669.367 51.0682C662.846 79.1761 653.314 123.847 647.293 152.959C641.273 182.07 647.795 209.676 666.357 231.761C684.92 253.846 726.559 300.525 782.748 415.466M782.748 415.466C838.936 530.407 848.468 609.711 851.479 632.298M782.748 415.466L755.657 455.224M836.93 628.283C833.418 609.711 822.481 564.337 806.829 531.411C795.348 507.26 777.649 477.234 755.657 455.224M703.482 425.505C722.554 428.201 740.17 439.725 755.657 455.224" stroke="white"/>
<path opacity="0.2" d="M123.711 31.0776V48.6274C157.77 39.1001 221.882 28.5703 251.433 24.5585L247.927 9.01449C238.912 5.00301 213.267 -1.51564 182.814 4.50158C152.361 10.5188 130.723 24.7261 123.711 31.0776Z" stroke="white" stroke-width="3"/>
<path opacity="0.2" d="M826.936 31.0776V48.6274C792.876 39.1001 728.765 28.5703 699.213 24.5585L702.719 9.01449C711.735 5.00301 737.38 -1.51564 767.833 4.50158C798.286 10.5188 819.923 24.7261 826.936 31.0776Z" stroke="white" stroke-width="3"/>
<path opacity="0.2" d="M123.711 33.0826V48.627C154.965 37.7964 221.882 28.5714 251.433 24.5597L247.927 9.01562C233.903 12.0223 213.267 14.5286 182.814 20.5458C152.361 26.5631 131.725 31.5782 123.711 33.0826Z" stroke="white"/>
<path opacity="0.2" d="M826.936 33.0826V48.627C795.681 37.7964 728.765 28.5714 699.213 24.5597L702.719 9.01562C716.744 12.0223 737.38 14.5286 767.833 20.5458C798.286 26.5631 818.922 31.5782 826.936 33.0826Z" stroke="white"/>
<g opacity="0.2">
<circle cx="328.5" cy="309.994" r="36" stroke="white"/>
<circle cx="328.5" cy="310.994" r="53" stroke="white" stroke-width="3"/>
<circle cx="328.5" cy="310.994" r="71" stroke="white"/>
</g>
<g opacity="0.2">
<circle cx="621.5" cy="309.994" r="36" stroke="white"/>
<circle cx="621.5" cy="310.994" r="53" stroke="white" stroke-width="3"/>
<circle cx="621.5" cy="310.994" r="71" stroke="white"/>
</g>
<path d="M189.595 174.008L189.126 171.045C188.711 171.111 188.289 171.111 187.874 171.045L187.405 174.008L187.874 171.045C187.479 170.983 186.937 170.779 185.928 169.968C184.875 169.121 183.615 167.867 181.712 165.963L169.393 153.645C166.948 151.2 166.216 150.419 165.763 149.53C165.596 149.203 165.456 148.864 165.343 148.515C165.034 147.566 165 146.496 165 143.038V131.694C165 126.378 165.004 122.631 165.317 119.746C165.623 116.916 166.197 115.272 167.101 114.029C167.779 113.095 168.601 112.273 169.534 111.595C170.778 110.692 172.422 110.117 175.251 109.811C178.137 109.498 181.884 109.494 187.2 109.494H189.8C195.116 109.494 198.863 109.498 201.749 109.811C204.578 110.117 206.222 110.692 207.466 111.595C208.399 112.273 209.221 113.095 209.899 114.029C210.803 115.272 211.377 116.916 211.683 119.746C211.996 122.631 212 126.378 212 131.694V143.038C212 146.496 211.966 147.566 211.657 148.515C211.544 148.864 211.404 149.203 211.237 149.53C210.784 150.419 210.052 151.2 207.607 153.645L195.288 165.963C193.385 167.867 192.125 169.121 191.072 169.968C190.063 170.779 189.521 170.983 189.126 171.045L189.595 174.008ZM187.874 197.443L187.405 194.48L187.874 197.443C188.289 197.377 188.711 197.377 189.126 197.443L189.595 194.48L189.126 197.443C189.521 197.505 190.063 197.709 191.072 198.521C192.125 199.368 193.385 200.622 195.288 202.525L207.607 214.843C210.052 217.288 210.784 218.069 211.237 218.958C211.404 219.285 211.544 219.624 211.657 219.973C211.966 220.922 212 221.992 212 225.45V236.794C212 242.111 211.996 245.857 211.683 248.743C211.377 251.572 210.803 253.216 209.899 254.46C209.221 255.394 208.399 256.215 207.466 256.893C206.222 257.797 204.578 258.371 201.749 258.677C198.863 258.99 195.116 258.994 189.8 258.994H187.2C181.884 258.994 178.137 258.99 175.251 258.677C172.422 258.371 170.778 257.797 169.534 256.893L167.771 259.32L169.534 256.893C168.601 256.215 167.779 255.394 167.101 254.46L164.674 256.223L167.101 254.46C166.197 253.216 165.623 251.572 165.317 248.743C165.004 245.857 165 242.111 165 236.794V225.45C165 221.992 165.034 220.922 165.343 219.973C165.456 219.624 165.596 219.285 165.763 218.958C166.216 218.069 166.948 217.288 169.393 214.843L181.712 202.525C183.615 200.622 184.875 199.368 185.928 198.521C186.937 197.709 187.479 197.505 187.874 197.443ZM258.716 162.845L260.479 160.418L258.716 162.845C259.649 163.523 260.471 164.345 261.149 165.278L263.576 163.515L261.149 165.279C262.053 166.522 262.627 168.166 262.933 170.996C263.246 173.881 263.25 177.628 263.25 182.944V185.544C263.25 190.861 263.246 194.607 262.933 197.493C262.627 200.322 262.053 201.966 261.149 203.21C260.471 204.144 259.649 204.965 258.716 205.643C257.472 206.547 255.828 207.121 252.999 207.427C250.113 207.74 246.366 207.744 241.05 207.744H229.706C226.248 207.744 225.178 207.71 224.229 207.402C223.88 207.288 223.541 207.148 223.214 206.981C222.325 206.528 221.544 205.796 219.099 203.351L206.781 191.032C204.878 189.129 203.623 187.869 202.776 186.816C201.965 185.808 201.761 185.265 201.699 184.87C201.633 184.455 201.633 184.033 201.699 183.618C201.761 183.224 201.965 182.681 202.776 181.672C203.623 180.619 204.878 179.359 206.781 177.456L219.099 165.138C221.544 162.693 222.325 161.96 223.214 161.507C223.541 161.341 223.88 161.2 224.229 161.087C225.178 160.778 226.248 160.744 229.706 160.744H241.05C246.366 160.744 250.113 160.748 252.999 161.061C255.828 161.367 257.472 161.942 258.716 162.845ZM175.301 183.618L178.264 183.149L175.301 183.618C175.367 184.033 175.367 184.455 175.301 184.87L178.264 185.339L175.301 184.87C175.239 185.265 175.035 185.808 174.224 186.816C173.377 187.869 172.122 189.129 170.219 191.032L157.901 203.351C155.456 205.796 154.675 206.528 153.786 206.981C153.459 207.148 153.12 207.288 152.771 207.402C151.822 207.71 150.752 207.744 147.294 207.744H135.95C130.634 207.744 126.887 207.74 124.001 207.427C121.172 207.121 119.528 206.547 118.284 205.643C117.351 204.965 116.529 204.144 115.851 203.21C114.947 201.966 114.373 200.322 114.067 197.493C113.754 194.607 113.75 190.861 113.75 185.544V182.944C113.75 177.628 113.754 173.881 114.067 170.996C114.373 168.166 114.947 166.522 115.851 165.279C116.529 164.345 117.351 163.523 118.284 162.845C119.528 161.942 121.172 161.367 124.001 161.061C126.887 160.748 130.634 160.744 135.95 160.744H147.294C150.752 160.744 151.822 160.778 152.771 161.087C153.12 161.2 153.459 161.341 153.786 161.507C154.675 161.96 155.456 162.692 157.901 165.137L170.219 177.456C172.122 179.359 173.377 180.619 174.223 181.672C175.035 182.681 175.239 183.224 175.301 183.618Z" stroke="white" stroke-width="6"/>
<path d="M189.5 122.494L195.995 130.744H183.005L189.5 122.494Z" fill="white"/>
<path d="M189.5 248.494L195.995 240.244H183.005L189.5 248.494Z" fill="white"/>
<path d="M252.5 184.494L244.25 190.989L244.25 177.999L252.5 184.494Z" fill="white"/>
<path d="M126.5 184.494L134.75 190.989L134.75 177.999L126.5 184.494Z" fill="white"/>
<circle cx="188" cy="185.494" r="91.5" stroke="white"/>
<path opacity="0.2" d="M289.085 43.0047C287.282 34.2052 293.602 25.7977 302.556 25.0813C432.809 14.6598 514.094 14.7352 648.036 25.125C657.009 25.821 663.356 34.2395 661.55 43.0557L633.458 180.159C628.691 203.422 608.221 220.123 584.475 220.123H366.17C342.424 220.123 321.954 203.422 317.187 180.159L289.085 43.0047Z" stroke="white" stroke-width="2"/>
<path opacity="0.2" d="M288.342 42.1082C287.68 38.8859 290.028 35.7954 293.316 35.523C433.772 23.886 511.839 23.9645 656.341 35.543C659.625 35.8062 661.983 38.8819 661.34 42.1023L633.788 180.016C629.071 203.626 608.343 220.622 584.266 220.622H366.159C342.181 220.622 321.509 203.761 316.689 180.272L288.342 42.1082Z" stroke="white"/>
<path opacity="0.2" d="M246.721 74.1657C245.465 68.1449 249.327 62.2438 255.348 60.9851C261.368 59.7264 267.266 63.5869 268.522 69.6077L272.494 88.6482C273.75 94.669 269.888 100.57 263.868 101.829C257.847 103.088 251.949 99.227 250.693 93.2062L246.721 74.1657Z" stroke="white"/>
<path opacity="0.2" d="M704.81 74.1657C706.066 68.1449 702.204 62.2438 696.184 60.9851C690.163 59.7264 684.265 63.5869 683.009 69.6077L679.037 88.6482C677.781 94.669 681.643 100.57 687.664 101.829C693.684 103.088 699.582 99.227 700.838 93.2062L704.81 74.1657Z" stroke="white"/>
<path opacity="0.2" d="M452.281 361.523C452.281 359.03 454.302 357.009 456.796 357.009H494.851C497.344 357.009 499.365 359.03 499.365 361.523C499.365 364.016 497.344 366.037 494.851 366.037H456.796C454.302 366.037 452.281 364.016 452.281 361.523Z" stroke="white"/>
<path opacity="0.2" d="M452.281 361.523C452.281 359.03 454.302 357.009 456.796 357.009H494.851C497.344 357.009 499.365 359.03 499.365 361.523C499.365 364.016 497.344 366.037 494.851 366.037H456.796C454.302 366.037 452.281 364.016 452.281 361.523Z" stroke="white"/>
<path opacity="0.2" d="M459.293 408.156C459.293 404.278 462.437 401.135 466.314 401.135H486.332C490.21 401.135 493.354 404.278 493.354 408.156C493.354 412.034 490.21 415.178 486.333 415.178H466.315C462.437 415.178 459.293 412.034 459.293 408.156Z" stroke="white"/>
<g opacity="0.2">
<circle cx="767" cy="115.494" r="31.5" stroke="white" stroke-width="3"/>
<circle cx="767" cy="251.494" r="31.5" stroke="white" stroke-width="3"/>
<circle cx="835" cy="184.494" r="31.5" transform="rotate(90 835 184.494)" stroke="white" stroke-width="3"/>
<circle cx="699" cy="184.494" r="31.5" transform="rotate(90 699 184.494)" stroke="white" stroke-width="3"/>
<circle cx="767" cy="183.494" r="108.5" stroke="white"/>
<path d="M751.412 124.494L767 97.4941L782.588 124.494H751.412Z" stroke="white" stroke-width="4"/>
<rect x="685" y="170.494" width="27" height="28" stroke="white" stroke-width="4"/>
<circle cx="835" cy="184.494" r="18" stroke="white" stroke-width="4"/>
<line x1="753.414" y1="237.08" x2="782.414" y2="266.08" stroke="white" stroke-width="4"/>
<line x1="752.586" y1="266.08" x2="781.586" y2="237.08" stroke="white" stroke-width="4"/>
</g>
<path opacity="0.2" d="M513.568 239.556L513.568 239.557C514.677 240.379 515.394 241.698 515.394 243.184C515.394 245.678 513.375 247.699 510.885 247.699C508.395 247.699 506.376 245.678 506.376 243.184C506.376 240.69 508.395 238.67 510.885 238.67C511.891 238.67 512.818 238.999 513.568 239.556ZM447.275 243.184C447.275 245.678 445.256 247.699 442.767 247.699C440.277 247.699 438.258 245.678 438.258 243.184C438.258 240.69 440.277 238.67 442.767 238.67C445.256 238.67 447.275 240.69 447.275 243.184ZM455.289 258.227C455.289 260.721 453.27 262.742 450.78 262.742C448.291 262.742 446.272 260.721 446.272 258.227C446.272 255.733 448.291 253.713 450.78 253.713C453.27 253.713 455.289 255.733 455.289 258.227ZM464.305 243.184C464.305 245.678 462.286 247.699 459.796 247.699C457.306 247.699 455.287 245.678 455.287 243.184C455.287 240.69 457.306 238.67 459.796 238.67C462.286 238.67 464.305 240.69 464.305 243.184ZM472.319 258.227C472.319 260.721 470.3 262.742 467.81 262.742C465.32 262.742 463.301 260.721 463.301 258.227C463.301 255.733 465.32 253.713 467.81 253.713C470.3 253.713 472.319 255.733 472.319 258.227ZM481.335 243.184C481.335 245.678 479.316 247.699 476.826 247.699C474.336 247.699 472.317 245.678 472.317 243.184C472.317 240.69 474.336 238.67 476.826 238.67C479.316 238.67 481.335 240.69 481.335 243.184ZM489.349 258.227C489.349 260.721 487.33 262.742 484.84 262.742C482.35 262.742 480.331 260.721 480.331 258.227C480.331 255.733 482.35 253.713 484.84 253.713C487.33 253.713 489.349 255.733 489.349 258.227ZM498.364 243.184C498.364 245.678 496.345 247.699 493.856 247.699C491.366 247.699 489.347 245.678 489.347 243.184C489.347 240.69 491.366 238.67 493.856 238.67C496.345 238.67 498.364 240.69 498.364 243.184ZM506.378 258.227C506.378 260.721 504.359 262.742 501.869 262.742C499.38 262.742 497.361 260.721 497.361 258.227C497.361 255.733 499.38 253.713 501.869 253.713C504.359 253.713 506.378 255.733 506.378 258.227Z" stroke="white"/>
<line opacity="0.2" x1="469.812" y1="406.655" x2="482.835" y2="406.655" stroke="white" stroke-width="2"/>
<g opacity="0.2">
<path d="M504.097 324.78C502.948 326.233 500.138 327.268 500.138 327.268L479.214 334.801V329.244L494.611 323.743C496.361 323.117 496.628 322.229 495.207 321.764C493.791 321.296 491.224 321.43 489.474 322.061L479.216 325.682V319.919L479.804 319.718C479.804 319.718 482.769 318.664 486.939 318.202C491.106 317.742 496.214 318.266 500.221 319.787C504.735 321.218 505.243 323.326 504.097 324.778V324.78ZM481.204 315.321V301.115C481.204 299.447 480.899 297.912 479.337 297.478C478.143 297.093 477.4 298.206 477.4 299.872V335.448L467.826 332.402V289.985C471.897 290.742 477.827 292.533 481.014 293.609C489.122 296.398 491.87 299.872 491.87 307.694C491.87 315.319 487.174 318.21 481.207 315.321H481.204ZM450.262 328.666C445.627 327.356 444.855 324.628 446.968 323.058C448.921 321.609 452.241 320.518 452.241 320.518L465.967 315.624V321.202L456.091 324.746C454.346 325.371 454.077 326.259 455.495 326.725C456.914 327.193 459.483 327.059 461.23 326.431L465.967 324.708V329.696L465.024 329.856C460.285 330.632 455.236 330.308 450.262 328.666Z" fill="white"/>
</g>
<g opacity="0.2">
<path fill-rule="evenodd" clip-rule="evenodd" d="M688 41H703V42.7143H688V41ZM688 46.1429H703V47.8571H688V46.1429ZM703 51.2857H688V53H703V51.2857Z" fill="white"/>
</g>
<g opacity="0.2">
<path d="M256.857 40V52H255.143L255.143 40H256.857Z" fill="white"/>
<path d="M265.538 44.2727L261.03 53.1992L259.5 52.4265L264.008 43.5L265.538 44.2727Z" fill="white"/>
<path d="M251.008 53.1992L246.5 44.2727L248.03 43.5L252.538 52.4265L251.008 53.1992Z" fill="white"/>
</g>
</svg>
